dist/static/img/yii/02.svg

<svg width="48" height="48" viewBox="0 0 48 48" fill="none" xmlns="http://www.w3.org/2000/svg">
<path d="M42.75 15V30H29.61L32.1975 23.5275L33.6975 19.7775C33.7378 19.6749 33.7553 19.5647 33.7488 19.4546C33.7424 19.3446 33.712 19.2372 33.66 19.14C33.6075 19.0441 33.5346 18.9608 33.4465 18.8961C33.3584 18.8313 33.2572 18.7865 33.15 18.765L29.4 18.015C29.2206 17.9779 29.0338 18.0078 28.8749 18.099C28.716 18.1902 28.596 18.3364 28.5375 18.51L28.065 19.9425L27.3375 19.5825C27.2096 19.5184 27.066 19.4921 26.9237 19.507C26.7814 19.5218 26.6463 19.577 26.5343 19.6661C26.4223 19.7552 26.3382 19.8744 26.2918 20.0098C26.2454 20.1452 26.2387 20.291 26.2725 20.43L26.9625 23.1975L26.2275 25.0425C26.1645 23.6542 25.7175 22.3106 24.9363 21.1613C24.155 20.0119 23.0702 19.1019 21.8025 18.5325L19.5 17.5125V15.555C20.4723 14.8738 21.188 13.8861 21.5325 12.75H21.75C22.3467 12.75 22.919 12.5129 23.341 12.091C23.7629 11.669 24 11.0967 24 10.5C24 9.90326 23.7629 9.33097 23.341 8.90901C22.919 8.48705 22.3467 8.25 21.75 8.25V6.75C21.75 5.35761 21.1969 4.02226 20.2123 3.03769C19.2277 2.05312 17.8924 1.5 16.5 1.5C15.1076 1.5 13.7723 2.05312 12.7877 3.03769C11.8031 4.02226 11.25 5.35761 11.25 6.75V8.25C10.6533 8.25 10.081 8.48705 9.65901 8.90901C9.23705 9.33097 9 9.90326 9 10.5C9 11.0967 9.23705 11.669 9.65901 12.091C10.081 12.5129 10.6533 12.75 11.25 12.75H11.4675C11.812 13.8861 12.5277 14.8738 13.5 15.555V17.5125L11.1975 18.5325C9.87333 19.1235 8.74867 20.0854 7.95942 21.3019C7.17017 22.5184 6.75011 23.9374 6.75 25.3875V30H5.25V11.25C5.25178 10.6538 5.48941 10.0825 5.91098 9.66098C6.33255 9.2394 6.90381 9.00178 7.5 9H8.25V7.5H7.5C6.50544 7.5 5.55161 7.89509 4.84835 8.59835C4.14509 9.30161 3.75 10.2554 3.75 11.25V33.75C3.75 34.7446 4.14509 35.6984 4.84835 36.4016C5.55161 37.1049 6.50544 37.5 7.5 37.5H17.9025L17.34 42H16.5C15.9033 42 15.331 42.2371 14.909 42.659C14.4871 43.081 14.25 43.6533 14.25 44.25C14.25 44.8467 14.4871 45.419 14.909 45.841C15.331 46.2629 15.9033 46.5 16.5 46.5H31.5C32.0967 46.5 32.669 46.2629 33.091 45.841C33.5129 45.419 33.75 44.8467 33.75 44.25C33.75 43.6533 33.5129 43.081 33.091 42.659C32.669 42.2371 32.0967 42 31.5 42H30.66L30.0975 37.5H40.5C41.4946 37.5 42.4484 37.1049 43.1516 36.4016C43.8549 35.6984 44.25 34.7446 44.25 33.75V15H42.75ZM21.75 9.75C21.9489 9.75 22.1397 9.82902 22.2803 9.96967C22.421 10.1103 22.5 10.3011 22.5 10.5C22.5 10.6989 22.421 10.8897 22.2803 11.0303C22.1397 11.171 21.9489 11.25 21.75 11.25V9.75ZM11.25 11.25C11.0511 11.25 10.8603 11.171 10.7197 11.0303C10.579 10.8897 10.5 10.6989 10.5 10.5C10.5 10.3011 10.579 10.1103 10.7197 9.96967C10.8603 9.82902 11.0511 9.75 11.25 9.75V11.25ZM28.1625 21.6675C28.2585 21.7151 28.3636 21.7417 28.4707 21.7456C28.5778 21.7496 28.6845 21.7307 28.7838 21.6903C28.8831 21.6499 28.9726 21.5888 29.0465 21.5112C29.1204 21.4336 29.177 21.3411 29.2125 21.24L29.7525 19.6125L31.965 20.055L30.99 22.5H28.335L28.125 21.6525L28.1625 21.6675ZM28.26 24H30.39L27.99 30H25.86L28.26 24ZM20.1 19.4175L19.755 21.1425L18.5175 20.1525L19.1025 18.975L20.1 19.4175ZM12.75 6.75C12.75 5.75544 13.1451 4.80161 13.8483 4.09835C14.5516 3.39509 15.5054 3 16.5 3C17.4946 3 18.4484 3.39509 19.1517 4.09835C19.8549 4.80161 20.25 5.75544 20.25 6.75V6.8025C20.0014 6.76877 19.7509 6.75123 19.5 6.75C18.3563 6.77437 17.232 7.05096 16.2075 7.56C15.3661 7.98456 14.442 8.22005 13.5 8.25C13.2484 8.25261 12.9971 8.23 12.75 8.1825V6.75ZM12.75 11.25V9.6975C12.9986 9.73123 13.2491 9.74877 13.5 9.75C14.6437 9.72563 15.768 9.44904 16.7925 8.94C17.6339 8.51544 18.558 8.27995 19.5 8.25C19.7516 8.24739 20.0029 8.27 20.25 8.3175V11.25C20.25 12.2446 19.8549 13.1984 19.1517 13.9017C18.4484 14.6049 17.4946 15 16.5 15C15.5054 15 14.5516 14.6049 13.8483 13.9017C13.1451 13.1984 12.75 12.2446 12.75 11.25ZM18 16.2825V17.82L16.5 20.82L15 17.82V16.2825C15.979 16.5725 17.021 16.5725 18 16.2825ZM13.8975 18.975L14.4825 20.1525L13.245 21.1425L12.9 19.4175L13.8975 18.975ZM8.25 25.3875C8.25255 24.2888 8.55674 23.2118 9.1294 22.2742C9.70206 21.3365 10.5212 20.574 11.4975 20.07L12.015 22.65C12.0408 22.7759 12.0984 22.893 12.1825 22.9902C12.2665 23.0874 12.3742 23.1614 12.495 23.205C12.5766 23.2351 12.663 23.2503 12.75 23.25C12.9192 23.249 13.083 23.1909 13.215 23.085L15.1725 21.5175L15.8325 22.8375C15.8954 22.9604 15.9911 23.0634 16.1088 23.1354C16.2266 23.2074 16.362 23.2455 16.5 23.2455C16.638 23.2455 16.7734 23.2074 16.8912 23.1354C17.0089 23.0634 17.1046 22.9604 17.1675 22.8375L17.8275 21.5175L19.785 23.085C19.917 23.1909 20.0808 23.249 20.25 23.25C20.337 23.2503 20.4234 23.2351 20.505 23.205C20.6258 23.1614 20.7335 23.0874 20.8175 22.9902C20.9016 22.893 20.9592 22.7759 20.985 22.65L21.5025 20.07C22.4788 20.574 23.2979 21.3365 23.8706 22.2742C24.4433 23.2118 24.7475 24.2888 24.75 25.3875V28.7325L24.24 30H22.5V24.75H21V30H12V24.75H10.5V30H8.25V25.3875ZM31.5 43.5C31.6989 43.5 31.8897 43.579 32.0303 43.7197C32.171 43.8603 32.25 44.0511 32.25 44.25C32.25 44.4489 32.171 44.6397 32.0303 44.7803C31.8897 44.921 31.6989 45 31.5 45H16.5C16.3011 45 16.1103 44.921 15.9697 44.7803C15.829 44.6397 15.75 44.4489 15.75 44.25C15.75 44.0511 15.829 43.8603 15.9697 43.7197C16.1103 43.579 16.3011 43.5 16.5 43.5H31.5ZM18.8475 42L19.41 37.5H28.59L29.1525 42H18.8475ZM42.75 33.75C42.7482 34.3462 42.5106 34.9175 42.089 35.339C41.6675 35.7606 41.0962 35.9982 40.5 36H7.5C6.90381 35.9982 6.33255 35.7606 5.91098 35.339C5.48941 34.9175 5.25178 34.3462 5.25 33.75V31.5H42.75V33.75Z" fill="white"/>
<path d="M39.75 33H38.25V34.5H39.75V33Z" fill="white"/>
<path d="M42 1.5H28.5C27.9033 1.5 27.331 1.73705 26.909 2.15901C26.4871 2.58097 26.25 3.15326 26.25 3.75V11.25C26.25 11.8467 26.4871 12.419 26.909 12.841C27.331 13.2629 27.9033 13.5 28.5 13.5H30.75V15.75C30.75 15.8983 30.794 16.0433 30.8764 16.1666C30.9589 16.2899 31.076 16.386 31.213 16.4428C31.35 16.4995 31.5008 16.5144 31.6463 16.4854C31.7917 16.4565 31.9254 16.3851 32.0303 16.2803L34.8105 13.5H42C42.5967 13.5 43.169 13.2629 43.591 12.841C44.0129 12.419 44.25 11.8467 44.25 11.25V3.75C44.25 3.15326 44.0129 2.58097 43.591 2.15901C43.169 1.73705 42.5967 1.5 42 1.5ZM42.75 11.25C42.75 11.4489 42.671 11.6397 42.5303 11.7803C42.3897 11.921 42.1989 12 42 12H34.5C34.3011 12 34.1104 12.0791 33.9697 12.2197L32.25 13.9395V12.75C32.25 12.5511 32.171 12.3603 32.0303 12.2197C31.8897 12.079 31.6989 12 31.5 12H28.5C28.3011 12 28.1103 11.921 27.9697 11.7803C27.829 11.6397 27.75 11.4489 27.75 11.25V3.75C27.75 3.55109 27.829 3.36032 27.9697 3.21967C28.1103 3.07902 28.3011 3 28.5 3H42C42.1989 3 42.3897 3.07902 42.5303 3.21967C42.671 3.36032 42.75 3.55109 42.75 3.75V11.25Z" fill="white"/>
<path d="M40.5 5.25H30V6.75H40.5V5.25Z" fill="white"/>
<path d="M40.5 8.25H30V9.75H40.5V8.25Z" fill="white"/>
</svg>

<svg width="48" height="48" viewBox="0 0 48 48" fill="none" xmlns="http://www.w3.org/2000/svg"><path d="M42.75 15v15H29.61l2.587-6.473 1.5-3.75a.76.76 0 00-.037-.637.749.749 0 00-.51-.375l-3.75-.75a.75.75 0 00-.862.495l-.473 1.432-.728-.36a.75.75 0 00-1.064.848l.69 2.768-.736 1.845a7.51 7.51 0 00-4.425-6.51l-2.302-1.02v-1.958a5.304 5.304 0 002.032-2.805h.218a2.25 2.25 0 000-4.5v-1.5a5.25 5.25 0 10-10.5 0v1.5a2.25 2.25 0 000 4.5h.217a5.304 5.304 0 002.033 2.805v1.957l-2.303 1.02a7.507 7.507 0 00-4.447 6.855V30h-1.5V11.25A2.257 2.257 0 017.5 9h.75V7.5H7.5a3.75 3.75 0 00-3.75 3.75v22.5A3.75 3.75 0 007.5 37.5h10.402L17.34 42h-.84a2.25 2.25 0 000 4.5h15a2.25 2.25 0 000-4.5h-.84l-.563-4.5H40.5a3.75 3.75 0 003.75-3.75V15h-1.5zm-21-5.25a.75.75 0 110 1.5v-1.5zm-10.5 1.5a.75.75 0 110-1.5v1.5zm16.913 10.418a.756.756 0 001.05-.428l.54-1.627 2.212.442-.975 2.445h-2.655l-.21-.848.038.015zM28.26 24h2.13l-2.4 6h-2.13l2.4-6zm-8.16-4.582l-.345 1.724-1.238-.99.585-1.177.998.442zM12.75 6.75a3.75 3.75 0 017.5 0v.053a5.79 5.79 0 00-.75-.053 7.772 7.772 0 00-3.293.81 6.466 6.466 0 01-2.707.69 3.766 3.766 0 01-.75-.068V6.75zm0 4.5V9.697c.249.034.5.052.75.053a7.772 7.772 0 003.293-.81 6.466 6.466 0 012.707-.69c.252-.003.503.02.75.068v2.932a3.75 3.75 0 01-7.5 0zM18 16.282v1.538l-1.5 3-1.5-3v-1.538c.979.29 2.021.29 3 0zm-4.102 2.693l.585 1.177-1.238.99-.345-1.724.998-.443zM8.25 25.387a6 6 0 013.248-5.317l.517 2.58a.75.75 0 001.2.435l1.957-1.568.66 1.32a.75.75 0 001.335 0l.66-1.32 1.958 1.568a.75.75 0 00.72.12.75.75 0 00.48-.555l.518-2.58a6 6 0 013.247 5.317v3.346L24.24 30H22.5v-5.25H21V30h-9v-5.25h-1.5V30H8.25v-4.613zM31.5 43.5a.75.75 0 110 1.5h-15a.75.75 0 110-1.5h15zM18.848 42l.562-4.5h9.18l.563 4.5H18.848zm23.902-8.25A2.257 2.257 0 0140.5 36h-33a2.257 2.257 0 01-2.25-2.25V31.5h37.5v2.25z" fill="#fff"/><path d="M39.75 33h-1.5v1.5h1.5V33zM42 1.5H28.5a2.25 2.25 0 00-2.25 2.25v7.5a2.25 2.25 0 002.25 2.25h2.25v2.25a.75.75 0 001.28.53l2.78-2.78H42a2.25 2.25 0 002.25-2.25v-7.5A2.25 2.25 0 0042 1.5zm.75 9.75A.75.75 0 0142 12h-7.5a.75.75 0 00-.53.22l-1.72 1.72v-1.19a.75.75 0 00-.75-.75h-3a.75.75 0 01-.75-.75v-7.5A.75.75 0 0128.5 3H42a.75.75 0 01.75.75v7.5z" fill="#fff"/><path d="M40.5 5.25H30v1.5h10.5v-1.5zm0 3H30v1.5h10.5v-1.5z" fill="#fff"/></svg>
